X:1
T:6 Lieder, Op.7
T:Vorüberfahrt
T:3. Vorüberfahrt
T:Johanna Kinkel
T:6 Lieder, Op.7 
T:(Composer)
T:Creative Commons copyright waiver (CC0 1.0 Universal)
T:Creative Commons copyright waiver (CC0 1.0 Universal)
C:Johanna Kinkel (originally published under the name J. Mathieux)
Z:(Composer)
Z:Creative Commons copyright waiver (CC0 1.0 Universal)
%%score ( 1 2 ) { ( 3 5 ) | 4 }
L:1/8
Q:1/4=144
M:6/8
K:Eb
V:1 treble nm="Gesang\nVoice"
V:2 treble 
V:3 treble nm="Pianoforte"
V:5 treble 
V:4 bass 
V:1
"^Allegro agitato" z6 |: z6 | z6 | z6 | z2 z z2 G | %5
w: ||||Ihr|
w: ||||Es|
w: ||||Ihr|
 e2 d"^Modern spelling:\n\"gotischen\"     v.2\n" c B A | %6
w: Lie- be flü- stern- den|
w: zieht zum go- ti- schen|
w: un- er- bitt- li- chen|
"^Modern spelling:\n\"Tore\"        v.2\n" A2 G z2 G | G2 D E2 F | E3 z2 E | E2 A c B A | e3 B2 B | %11
w: Lin- den! am|We- ge rech- ter|Hand, Ihr|streckt her- ü- ber die|Zwei- ge Und|
w: To- re mich|* Ge- walf her-|ein, viel-|leicht be- gegn' ich dem|Lieb- sten, Doch|
w: Rä- der, so|steht denn eu- er|Sinn zu|rol- len, im- mer zu|rol- len in's|
 B B B c2 B | =A3[Q:1/4=130] z2"^molto ritard."!p! A |[Q:1/4=110] =AG =B/c/ d/=e/ f e/d/ | %14
w: grüsst mich so wohl be-|kannt. Ihr|zeigt _ mir _ ro- * sig be- *|
w: ach! _ das darf *|sein. Ich|möch- * te _ weil- * len so _|
w: fer- * ne Blau- e|* Die|flücht- * gen _ Ros- * se ver- *|
 (=e>dc/G/)"^E flat sounds \nhorrible!\n" !courtesy!=E z G | %15
w: leuch- * * * tet die|
w: ger- * * * ne An|
w: ste- * * * hen Mein|
"^Modern spelling:\n\"Türme\"       v.1\n" G D G =B2 d | c3 z2[Q:1/4=144]"^a tempo"!f! G | %17
w: Tür- me der frei- en|Stadt, die|
w: dem _ ge- lieb- ten|Ort; doch|
w: inn- * res Fle- nen|nicht, sie|
 =E2 G c d =e | (=e>dc/G/) !courtesy!=E z c/B/ |[Q:1/4=120]"^piu lento" _A2 A/G/ F2 _E/D/ | %20
w: mei- ne glü- hend- ste-|Lie- * * * be und _|Qual ge- * bo- ren _|
w: al- les hat sich ver-|schwo- * * * ren und _|reisst mich _ grau- sam _|
w: ja- gen brau- send vor-|ü- * * * ber, ob _|auch das _ Herz mir _|
[Q:1/4=144]"^a tempo" C2 z z2"_J. Mathieux" z :| z6 | z6 | z6 | z6 | z6 | z6 | z6 | z6 |] %29
w: hat.|||||||||
w: fort.|||||||||
w: bricht.|||||||||
V:2
 x6 |: x6 | x6 | x6 | x6 | x6 | x6 | G D D x2 x | x6 | x6 | x6 | B z B c2 B/ B/ | =A3 x2 x | x6 | %14
w: ||||||||||||||
w: |||||||wie mit *||||* * * ja nicht|||
w: |||||||||||* * * * da-|hin.||
 x6 | GD G x2 x | x6 | x6 | x6 | x6 | x6 :| x6 | x6 | x6 | x6 | x6 | x6 | x6 | x6 |] %29
w: |||||||||||||||
w: |||||||||||||||
w: |||||||||||||||
V:3
 C/=B,/C/G,/D/B,/ E/D/E/C/F/D/ |: G/^F/G/c/A/=F/ D/^C/D/B/G/E/ | C/=B,/C/A/F/D/ B,/^A,/B,/_A/G/F/ | %3
 E/G/c/G/[CE]/G/ [CD]/A/[CD]/A/[=B,D]/G/ |!>(! [CE]/G/c/G/[CE]/G/ [CD]/A/[CD]/!>)!A/[=B,D]/G/ | %5
!pp! [CE]/G/[CE]/G/A/G/ [CE]/G/[CE]/G/A/G/ | [DF]/G/[DF]/G/A/G/ [DF]/G/[DF]/G/A/G/ | %7
 [DF]/G/[DF]/G/A/G/ [DF]/G/[DF]/G/A/G/ | [CE]/G/[CE]/G/A/G/ [_DE]/G/[DE]/G/A/G/ | %9
 [CE]/G/A/G/A/c/ [CE]/G/A/G/A/c/ | [B,E]/^F/G/F/G/B/ [B,E]/F/G/F/G/B/ | %11
 =E/=A/B/A/B/d/ E/A/B/A/B/d/ | F/^G/=A/G/A/c/ F/G/A/G/A/c/ | %13
!p! [F=A]/D/[FG]/D/[FG]/D/ [FA]/D/[FG]/D/[FG]/D/ | [C=E]/G/[CE]/G/c/G/ [CE]/G/[CE]/G/=A/G/ | %15
 [=B,D]/G/[B,D]/G/"^B flat sounds \nhorrible!\n"!courtesy!=B/G/ [B,D]/G/[B,D]/G/B/G/ | %16
 [C=E]/G/[CE]/G/c/G/ [CE]/G/[CE]/G/=A/G/ | [C=E]/G/[CE]/G/c/G/ [CE]/G/[CE]/G/c/G/ | %18
 [C=E]/G/[CE]/G/c/G/ [CE]/G/[CE]/G/c/G/ |"^piu lento" [CF]/A/[CF]/A/[CF]/A/ [DF]/G/[DF]/G/[DF]/G/ | %20
!f!"^a tempo" C/=B,/C/G,/D/B,/ E/D/E/C/F/D/ :| G/^F/G/c/A/=F/ D/^C/D/B/G/E/ | %22
 C/=B,/C/A/F/D/ B,/^A,/B,/_A/G/F/ | E/G/c/G/[CE]/G/ [CD]/A/[CD]/A/[=B,D]/G/ | %24
 [CE]/G/c/G/[CE]/G/ [CD]/A/[CD]/A/[=B,D]/G/ | %25
"_dim." [CE]/G/[CE]/G/[=B,D]/G/ [CE]/G/[CE]/G/[B,D]/G/ |!pp! C z z C z z | C z z z2 z | z6 |] %29
V:4
 C,/=B,,/C,/G,,/D,/B,,/ E,/D,/E,/C,/F,/D,/ |: G,/^F,/G,/C/A,/=F,/ D,/^C,/D,/B,/G,/E,/ | %2
 C,/=B,,/C,/A,/F,/D,/ B,,/^A,,/B,,/_A,/G,/F,/ | E,2 [E,,E,] [F,,F,]2 [G,,G,] | %4
 [C,,C,]2 [E,,E,] [F,,F,]2 [G,,G,] | [C,G,]3 [C,G,]3 | [=B,,G,]3 [B,,G,]3 | [G,,G,]3 [=B,,G,]3 | %8
 [C,G,]3 [_B,,G,]3 | [A,,E,A,]3 [A,,E,A,]3 | [G,,E,G,]3 [G,,E,G,]3 | [_G,,B,,_G,]3 [G,,_D,G,]3 | %12
 [F,,F,]3 [F,,F,]3 | [G,,D,G,]3 [G,,=B,,G,]3 | [C,G,]3 [C,G,]3 | [G,,D,G,]3 [G,,D,G,]3 | %16
 [C,G,]3 [C,G,]3 | [C,,G,,C,]3 [C,G,]3 | [C,,G,,C,]3 [C,G,]3 | [F,,F,]3 [G,,G,]3 | %20
 C,/=B,,/C,/G,,/D,/B,,/ E,/D,/E,/C,/F,/D,/ :| G,/^F,/G,/C/A,/=F,/ D,/^C,/D,/B,/G,/E,/ | %22
 C,/=B,,/C,/A,/F,/D,/ B,,/^A,,/B,,/_A,/G,/F,/ | E,2 [E,,E,] [F,,F,]2 [G,,G,] | %24
 [C,,C,]2 [E,,E,] [F,,F,]2 [G,,G,] | [C,G,]2 [G,,G,] [C,G,]2 [G,,G,] | %26
 C,/D,/C,/D,/E,/D,/ C,/D,/C,/D,/E,/D,/ | C, z z C, z z | C, z z z2 z |] %29
V:5
 x6 |: x6 | x6 | x6 | x6 | x6 | x6 | x6 | x6 | x6 | x6 | _D2 z B,2 z | C2 z C2 z | x6 | x6 | x6 | %16
 x6 | x6 | x6 | x6 | x6 :| x6 | x6 | x6 | x6 | x6 | x6 | x6 | x6 |] %29

